icons/square/48/gretl.svg

<svg width="48" height="48" version="1.1" viewBox="0 0 48 48.000001" xmlns="http://www.w3.org/2000/svg">
 <defs>
  <linearGradient id="linearGradient4501" x1="-47" x2="-1" y1="2.8779e-15" y2="6.1232e-17" gradientUnits="userSpaceOnUse">
   <stop style="stop-color:#e4e4e4" offset="0"/>
   <stop style="stop-color:#eee" offset="1"/>
  </linearGradient>
 </defs>
 <g transform="translate(0 3.949e-5)">
  <path d="m1 43v0.25c0 2.216 1.784 4 4 4h38c2.216 0 4-1.784 4-4v-0.25c0 2.216-1.784 4-4 4h-38c-2.216 0-4-1.784-4-4zm0 0.5v0.5c0 2.216 1.784 4 4 4h38c2.216 0 4-1.784 4-4v-0.5c0 2.216-1.784 4-4 4h-38c-2.216 0-4-1.784-4-4z" style="opacity:.02"/>
  <path d="m1 43.25v0.25c0 2.216 1.784 4 4 4h38c2.216 0 4-1.784 4-4v-0.25c0 2.216-1.784 4-4 4h-38c-2.216 0-4-1.784-4-4z" style="opacity:.05"/>
  <path d="m1 43v0.25c0 2.216 1.784 4 4 4h38c2.216 0 4-1.784 4-4v-0.25c0 2.216-1.784 4-4 4h-38c-2.216 0-4-1.784-4-4z" style="opacity:.1"/>
 </g>
 <rect transform="rotate(-90)" x="-47" y="1" width="46" height="46" rx="4" style="fill:url(#linearGradient4501)"/>
 <path d="m8.002 1.0001v5.5l-0.0019 0.0019v0.5h-7.0001v1.002l7-2e-3v7h-7v1h6.998v7h-6.998v1h6.998v7h-6.998v1h6.998v7l-6.998-2e-3v1.002h7v6.998h1l-2e-3 -5.5645 0.0039 0.0039v-1.4375h6.9961v6.998h1.0039v-6.9961h6.9961v6.9961h1v-6.998h7v6.998h1v-6.9961l7-0.0039v0.5l2e-3 -2e-3v6.502h1v-7h6v-1h-6l-2e-3 -6.9961h6.002v-1.0039h-6.002v-6.9961h6.002v-1.0039h-6.002v-6.9961h6.002v-1.0039h-6l2e-3 -6.9961h5.998v-1h-5.998v-6.0039h-1v5.5098l-0.0059-0.0059v0.5l-6.9961-0.0039v-6h-1.0039v6.002h-6.9961v-6.002h-1v6h-7v-6h-1v6.002h-7v-1.4395l0.0019-4.5625h-1zm1 7.0039h6.998v6.9961h-6.998zm8 0h6.998v6.9961h-6.998zm8 0h6.998v6.9961h-6.998zm8 0h6.998v6.9961h-6.998zm-24 8h6.998v6.9961h-6.998zm8 0h6.998v6.9961h-6.998zm8 0h6.998v6.9961h-6.998zm8 0h6.998v6.9961h-6.998zm-24 8h6.998v6.9961h-6.998zm8 0h6.998v6.9961h-6.998zm8 0h6.998v6.9961h-6.998zm8 0h6.998v6.9961h-6.998zm-24 8h6.998v6.9961h-6.998zm8 0h6.998v6.9961h-6.998zm8 0h6.998v6.9961h-6.998zm8 0h6.998v6.9961h-6.998z" style="fill:#a0dad0"/>
 <path d="m36 15-6.03 7.756a1 1 0 0 1 0.031 0.244 1 1 0 0 1 -1 1 1 1 0 0 1 -1 -1 1 1 0 0 1 0.1 -0.438l-4.1-6.563-5 5a1 1 0 0 1 -1 1 1 1 0 0 1 -1 -1l-1-1-3 3a1 1 0 0 1 -1 1v9h24v-18z" style="fill-opacity:.784;opacity:.1"/>
 <g transform="translate(0 3.949e-5)">
  <g transform="translate(0 -1004.4)">
   <path d="m1 1043.4v4c0 2.216 1.784 4 4 4h38c2.216 0 4-1.784 4-4v-4c0 2.216-1.784 4-4 4h-38c-2.216 0-4-1.784-4-4z" style="opacity:.1"/>
  </g>
 </g>
 <path d="m36 13a1 1 0 0 0 -1 1 1 1 0 0 0 0.13 0.49l-5.87 7.55a1 1 0 0 0 -0.26 -0.04 1 1 0 0 0 -0.07 0l-4.065-6.502a1 1 0 0 0 0.135 -0.498 1 1 0 0 0 -1 -1 1 1 0 0 0 -1 1 1 1 0 0 0 0.12 0.469l-4.651 4.651a1 1 0 0 0 -0.469 -0.12 1 1 0 0 0 -0.469 0.12l-0.648-0.651a1 1 0 0 0 0.117 -0.469 1 1 0 0 0 -1 -1 1 1 0 0 0 -1 1 1 1 0 0 0 0.12 0.469l-2.651 2.651a1 1 0 0 0 -0.469 -0.12 1 1 0 0 0 -1 1 1 1 0 0 0 1 1 1 1 0 0 0 1 -1l3-3 1 1a1 1 0 0 0 1 1 1 1 0 0 0 1 -1l5-5 4.1 6.563a1 1 0 0 0 -0.1 0.437 1 1 0 0 0 1 1 1 1 0 0 0 1 -1 1 1 0 0 0 -0.031 -0.244l6.031-7.756a1 1 0 0 0 1 -1 1 1 0 0 0 -1 -1z" style="color-rendering:auto;color:#000000;image-rendering:auto;isolation:auto;mix-blend-mode:normal;opacity:.12;shape-rendering:auto;solid-color:#000000;white-space:normal" isolation="auto" mix-blend-mode="normal"/>
 <path d="m12 23 4-4 2 2 6-6 5 8 7-9v18h-24z" style="fill-opacity:.536;fill:#6d94bf"/>
 <path d="m36 12a1 1 0 0 0 -1 1 1 1 0 0 0 0.13 0.49l-5.87 7.55a1 1 0 0 0 -0.26 -0.04 1 1 0 0 0 -0.07 0l-4.065-6.502a1 1 0 0 0 0.135 -0.498 1 1 0 0 0 -1 -1 1 1 0 0 0 -1 1 1 1 0 0 0 0.12 0.469l-4.651 4.651a1 1 0 0 0 -0.469 -0.12 1 1 0 0 0 -0.469 0.12l-0.648-0.651a1 1 0 0 0 0.117 -0.469 1 1 0 0 0 -1 -1 1 1 0 0 0 -1 1 1 1 0 0 0 0.12 0.469l-2.651 2.651a1 1 0 0 0 -0.469 -0.12 1 1 0 0 0 -1 1 1 1 0 0 0 1 1 1 1 0 0 0 1 -1l3-3 1 1a1 1 0 0 0 1 1 1 1 0 0 0 1 -1l5-5 4.1 6.563a1 1 0 0 0 -0.1 0.437 1 1 0 0 0 1 1 1 1 0 0 0 1 -1 1 1 0 0 0 -0.031 -0.244l6.031-7.756a1 1 0 0 0 1 -1 1 1 0 0 0 -1 -1z" style="color-rendering:auto;color:#000000;fill:#505050;image-rendering:auto;isolation:auto;mix-blend-mode:normal;shape-rendering:auto;solid-color:#000000;white-space:normal" isolation="auto" mix-blend-mode="normal"/>
</svg>

<svg width="48" height="48" viewBox="0 0 48 48.000001" xmlns="http://www.w3.org/2000/svg">
  <defs>
    <linearGradient id="a" x1="-47" x2="-1" gradientUnits="userSpaceOnUse">
      <stop offset="0" stop-color="#e4e4e4"/>
      <stop offset="1" stop-color="#eee"/>
    </linearGradient>
  </defs>
  <path d="M1 43v.25c0 2.216 1.784 4 4 4h38c2.216 0 4-1.784 4-4V43c0 2.216-1.784 4-4 4H5c-2.216 0-4-1.784-4-4zm0 .5v.5c0 2.216 1.784 4 4 4h38c2.216 0 4-1.784 4-4v-.5c0 2.216-1.784 4-4 4H5c-2.216 0-4-1.784-4-4z" opacity=".02"/>
  <path d="M1 43.25v.25c0 2.216 1.784 4 4 4h38c2.216 0 4-1.784 4-4v-.25c0 2.216-1.784 4-4 4H5c-2.216 0-4-1.784-4-4z" opacity=".05"/>
  <path d="M1 43v.25c0 2.216 1.784 4 4 4h38c2.216 0 4-1.784 4-4V43c0 2.216-1.784 4-4 4H5c-2.216 0-4-1.784-4-4z" opacity=".1"/>
  <rect transform="rotate(-90)" x="-47" y="1" width="46" height="46" rx="4" fill="url(#a)"/>
  <path d="M8.002 1v5.5L8 6.502v.5H1v1.002l7-.002v7H1v1h6.998v7H1v1h6.998v7H1v1h6.998v7L1 39v1.002h7V47h1l-.002-5.565.004.004v-1.437h6.996V47h1.004v-6.996h6.996V47h1v-6.998h7V47h1v-6.996l7-.004v.5l.002-.002V47h1v-7h6v-1h-6l-.002-6.996H47V31h-6.002v-6.996H47V23h-6.002v-6.996H47V15h-6l.002-6.996H47v-1h-5.998V1h-1v5.51l-.006-.006v.5L33 7V1h-1.004v6.002H25V1h-1v6h-7V1h-1v6.002H9v-1.44L9.002 1h-1zm1 7.004H16V15H9.002zm8 0H24V15h-6.998zm8 0H32V15h-6.998zm8 0H40V15h-6.998zm-24 8H16V23H9.002zm8 0H24V23h-6.998zm8 0H32V23h-6.998zm8 0H40V23h-6.998zm-24 8H16V31H9.002zm8 0H24V31h-6.998zm8 0H32V31h-6.998zm8 0H40V31h-6.998zm-24 8H16V39H9.002zm8 0H24V39h-6.998zm8 0H32V39h-6.998zm8 0H40V39h-6.998z" fill="#a0dad0"/>
  <path d="M36 15l-6.03 7.756a1 1 0 0 1 .031.244 1 1 0 0 1-1 1 1 1 0 0 1-1-1 1 1 0 0 1 .1-.438l-4.1-6.563-5 5a1 1 0 0 1-1 1 1 1 0 0 1-1-1l-1-1-3 3a1 1 0 0 1-1 1v9h24v-18z" fill-opacity=".784" opacity=".1"/>
  <path d="M1 39v4c0 2.216 1.784 4 4 4h38c2.216 0 4-1.784 4-4v-4c0 2.216-1.784 4-4 4H5c-2.216 0-4-1.784-4-4z" opacity=".1"/>
  <path d="M36 13a1 1 0 0 0-1 1 1 1 0 0 0 .13.49l-5.87 7.55A1 1 0 0 0 29 22a1 1 0 0 0-.07 0l-4.065-6.502A1 1 0 0 0 25 15a1 1 0 0 0-1-1 1 1 0 0 0-1 1 1 1 0 0 0 .12.469l-4.651 4.651A1 1 0 0 0 18 20a1 1 0 0 0-.469.12l-.648-.651A1 1 0 0 0 17 19a1 1 0 0 0-1-1 1 1 0 0 0-1 1 1 1 0 0 0 .12.469l-2.651 2.651A1 1 0 0 0 12 22a1 1 0 0 0-1 1 1 1 0 0 0 1 1 1 1 0 0 0 1-1l3-3 1 1a1 1 0 0 0 1 1 1 1 0 0 0 1-1l5-5 4.1 6.563A1 1 0 0 0 28 23a1 1 0 0 0 1 1 1 1 0 0 0 1-1 1 1 0 0 0-.031-.244L36 15a1 1 0 0 0 1-1 1 1 0 0 0-1-1z" style="isolation:auto;mix-blend-mode:normal" color="#000" opacity=".12" white-space="normal"/>
  <path d="M12 23l4-4 2 2 6-6 5 8 7-9v18H12z" fill-opacity=".536" fill="#6d94bf"/>
  <path d="M36 12a1 1 0 0 0-1 1 1 1 0 0 0 .13.49l-5.87 7.55A1 1 0 0 0 29 21a1 1 0 0 0-.07 0l-4.065-6.502A1 1 0 0 0 25 14a1 1 0 0 0-1-1 1 1 0 0 0-1 1 1 1 0 0 0 .12.469l-4.651 4.651A1 1 0 0 0 18 19a1 1 0 0 0-.469.12l-.648-.651A1 1 0 0 0 17 18a1 1 0 0 0-1-1 1 1 0 0 0-1 1 1 1 0 0 0 .12.469l-2.651 2.651A1 1 0 0 0 12 21a1 1 0 0 0-1 1 1 1 0 0 0 1 1 1 1 0 0 0 1-1l3-3 1 1a1 1 0 0 0 1 1 1 1 0 0 0 1-1l5-5 4.1 6.563A1 1 0 0 0 28 22a1 1 0 0 0 1 1 1 1 0 0 0 1-1 1 1 0 0 0-.031-.244L36 14a1 1 0 0 0 1-1 1 1 0 0 0-1-1z" style="isolation:auto;mix-blend-mode:normal" color="#000" fill="#505050" white-space="normal"/>
</svg>
